public/images/icons/tx_list.svg

<svg width="39" height="45" viewBox="0 0 39 45" fill="none" xmlns="http://www.w3.org/2000/svg">
<g filter="url(#filter0_d_178_4811)">
<path d="M18.0742 41.3408C17.3594 41.3408 16.6992 40.96 16.3418 40.3408L13.3438 35.1465H10.5488C5.2832 35.1465 1 30.8633 1 25.5977V10.5488C1 5.2832 5.2832 1 10.5488 1H25.5977C30.8633 1 35.1465 5.2832 35.1465 10.5488V25.5977C35.1465 30.8633 30.8633 35.1465 25.5977 35.1465H22.8047L19.8066 40.3408C19.4492 40.96 18.7891 41.3408 18.0742 41.3408Z" fill="white"/>
<path d="M25.5981 3H10.5493C6.38013 3 3.00024 6.37976 3.00024 10.549V25.5978C3.00024 29.767 6.38013 33.1467 10.5493 33.1467H14.4976L18.0737 39.3408L21.6499 33.1467H25.5981C29.7673 33.1467 33.147 29.767 33.147 25.5978V10.549C33.147 6.37976 29.7673 3 25.5981 3Z" stroke="#2AE864" stroke-width="1.5" stroke-linejoin="round"/>
<path d="M27.7747 15.347C27.6812 15.2027 27.5336 15.101 27.3646 15.0657L23.6368 14.2753V11.2936C23.6368 10.9343 23.3448 10.6423 22.9855 10.6423H14.74C14.5669 10.6423 14.4012 10.7112 14.279 10.8343L11.9939 13.1267C11.8725 13.249 11.8036 13.4138 11.8036 13.5861V15.1712L8.70983 16.2181C8.54578 16.2739 8.41127 16.392 8.33499 16.5462C8.25789 16.7012 8.24641 16.88 8.30136 17.0432L11.446 26.3354C11.5018 26.4994 11.6199 26.6339 11.7741 26.7102C11.8652 26.7553 11.9636 26.7783 12.0628 26.7783C12.1334 26.7783 12.2039 26.7668 12.2712 26.7438L19.0941 24.4345L25.1066 25.7095C25.1525 25.7194 25.1976 25.7243 25.2428 25.7243C25.5438 25.7243 25.8136 25.5143 25.8784 25.2084L27.8658 15.8375C27.9019 15.6686 27.8691 15.4922 27.7747 15.347ZM13.1061 13.8551L15.0098 11.9448H22.3343V20.9802H13.1061V13.8551ZM12.4705 25.3019L9.74329 17.2425L11.8036 16.5454V21.6315C11.8036 21.9907 12.0956 22.2827 12.4549 22.2827H15.1936L15.0599 22.9135C15.0238 23.0824 15.0566 23.2588 15.1509 23.4039C15.2444 23.5483 15.3921 23.65 15.561 23.6853L16.5974 23.905L12.4705 25.3019ZM24.74 24.3013L16.4682 22.5468L16.5241 22.2827H22.9855C23.3448 22.2827 23.6368 21.9907 23.6368 21.6315V15.6061L26.4575 16.2042L24.74 24.3013ZM21.0876 14.435C21.0876 14.7942 20.7956 15.0862 20.4363 15.0862H15.5815C15.2223 15.0862 14.9303 14.7942 14.9303 14.435C14.9303 14.0757 15.2223 13.7837 15.5815 13.7837H20.4363C20.7956 13.7837 21.0876 14.0757 21.0876 14.435ZM21.0876 16.7726C21.0876 17.1318 20.7956 17.4238 20.4363 17.4238H15.5815C15.2223 17.4238 14.9303 17.1318 14.9303 16.7726C14.9303 16.4133 15.2223 16.1213 15.5815 16.1213H20.4363C20.7956 16.1213 21.0876 16.4133 21.0876 16.7726Z" fill="#2AE864"/>
</g>
<defs>
<filter id="filter0_d_178_4811" x="0" y="0" width="38.1465" height="44.7041" filterUnits="userSpaceOnUse" color-interpolation-filters="sRGB">
<feFlood flood-opacity="0" result="BackgroundImageFix"/>
<feColorMatrix in="SourceAlpha" type="matrix" values="0 0 0 0 0 0 0 0 0 0 0 0 0 0 0 0 0 0 127 0" result="hardAlpha"/>
<feOffset dx="1" dy="1"/>
<feGaussianBlur stdDeviation="1"/>
<feColorMatrix type="matrix" values="0 0 0 0 0 0 0 0 0 0 0 0 0 0 0 0 0 0 0.12 0"/>
<feBlend mode="normal" in2="BackgroundImageFix" result="effect1_dropShadow_178_4811"/>
<feBlend mode="normal" in="SourceGraphic" in2="effect1_dropShadow_178_4811" result="shape"/>
</filter>
</defs>
</svg>

<svg xmlns="http://www.w3.org/2000/svg" width="39" height="45" fill="none"><path fill="#fff" d="M18.074 41.34a2 2 0 0 1-1.732-1l-2.998-5.194h-2.795C5.283 35.147 1 30.864 1 25.599v-15.05C1 5.284 5.283 1 10.549 1h15.049c5.265 0 9.549 4.283 9.549 9.549v15.049c0 5.265-4.284 9.549-9.55 9.549h-2.792l-2.998 5.194a2 2 0 0 1-1.733 1Z"/><path stroke="#2AE864" stroke-linejoin="round" stroke-width="1.5" d="M25.598 3H10.55C6.38 3 3 6.38 3 10.549v15.049c0 4.169 3.38 7.549 7.55 7.549h3.948l3.576 6.194 3.576-6.194h3.948c4.17 0 7.549-3.38 7.549-7.55V10.55c0-4.17-3.38-7.549-7.549-7.549Z"/><path fill="#2AE864" d="M27.775 15.347a.647.647 0 0 0-.41-.281l-3.728-.79v-2.982a.652.652 0 0 0-.652-.652H14.74a.649.649 0 0 0-.461.192l-2.285 2.293a.652.652 0 0 0-.19.46v1.584L8.71 16.218a.652.652 0 0 0-.409.825l3.145 9.292a.652.652 0 0 0 .825.409l6.823-2.31 6.013 1.275a.65.65 0 0 0 .772-.501l1.987-9.37a.65.65 0 0 0-.091-.491Zm-14.669-1.492 1.904-1.91h7.324v9.035h-9.228v-7.125Zm-.636 11.447-2.727-8.06 2.06-.697v5.086c0 .36.293.652.652.652h2.739l-.134.63a.65.65 0 0 0 .501.772l1.036.22-4.127 1.397Zm12.27-1-8.272-1.755.056-.264h6.461c.36 0 .652-.292.652-.652v-6.025l2.82.598-1.717 8.097Zm-3.652-9.867c0 .36-.292.651-.652.651h-4.854a.652.652 0 0 1 0-1.302h4.854c.36 0 .652.292.652.651Zm0 2.338c0 .359-.292.65-.652.65h-4.854a.652.652 0 0 1 0-1.302h4.854c.36 0 .652.292.652.652Z"/></svg>
